brandFactory_export/1.Light/Regalo _1Light.svg

<?xml version="1.0" encoding="UTF-8"?>
<svg width="24px" height="24px" viewBox="0 0 24 24" version="1.1" xmlns="http://www.w3.org/2000/svg" xmlns:xlink="http://www.w3.org/1999/xlink">
    <title>1.Light/Regalo _1Light</title>
    <g id="Symbols" stroke="none" stroke-width="1" fill="none" fill-rule="evenodd">
        <g id="1.Light/Regalo-_1Light" fill="#5CB615" fill-rule="nonzero">
            <path d="M22.5983193,11.2470588 C22.5983193,11.6705882 22.2957983,11.989916 22.097479,11.989916 L12.2554622,11.989916 L12.2554622,6.91428571 L22.097479,6.91428571 C22.2655462,6.91428571 22.5983193,7.25042017 22.5983193,7.65714286 L22.5983193,11.2470588 L22.5983193,11.2470588 Z M21.0117647,21.9226891 C21.0117647,22.3462185 20.7092437,22.6655462 20.5109244,22.6655462 L12.2588235,22.6655462 L12.2588235,12.9848739 L21.0117647,12.9848739 L21.0117647,21.9226891 Z M2.54117647,21.9193277 L2.54117647,13.092437 C2.54117647,13.0521008 2.52773109,13.0184874 2.51764706,12.9815126 L11.2369748,12.9815126 L11.2369748,22.6621849 L3.03865546,22.6621849 C2.84369748,22.6621849 2.53781513,22.3428571 2.54117647,21.9193277 L2.54117647,21.9193277 Z M1.02521008,11.2470588 L1.02521008,7.65378151 C1.02521008,7.24705882 1.35798319,6.91092437 1.52605042,6.91092437 L11.2369748,6.91092437 L11.2369748,11.9865546 L1.52268908,11.9865546 C1.32773109,11.9865546 1.02521008,11.6672269 1.02521008,11.2470588 Z M5.50588235,2.14789916 C5.91260504,1.5394958 6.38991597,1.17647059 6.92773109,1.06554622 C7.04537815,1.04201681 7.16302521,1.03193277 7.28403361,1.03193277 C7.7210084,1.03193277 8.18823529,1.18655462 8.6789916,1.49579832 C9.74453782,2.16806723 10.7529412,4.50756303 11.1462185,5.70420168 C9.89243697,5.83865546 7.25378151,5.90588235 6.18151261,5.2302521 C5.55630252,4.83697479 5.17983193,4.3697479 5.06890756,3.85210084 C4.95462185,3.32773109 5.09915966,2.75630252 5.50588235,2.14789916 Z M14.8739496,1.49243697 C15.4991597,1.09579832 16.087395,0.951260504 16.6252101,1.06554622 C17.1630252,1.17647059 17.6403361,1.5394958 18.0470588,2.14789916 C18.8638655,3.36806723 18.6319328,4.4302521 17.3747899,5.22689076 C16.302521,5.90588235 13.6672269,5.83865546 12.410084,5.70084034 C12.8,4.50420168 13.805042,2.16806723 14.8739496,1.49243697 Z M22.1008403,5.91932773 L18.1210084,5.91932773 C18.8537815,5.40504202 19.3310924,4.76638655 19.4857143,4.05378151 C19.6537815,3.27731092 19.4521008,2.4302521 18.9008403,1.60336134 C18.3495798,0.779831933 17.6336134,0.255462185 16.8336134,0.0907563025 C16.0369748,-0.0773109244 15.1630252,0.121008403 14.312605,0.662184874 C13.1932773,1.36806723 12.2991597,3.16302521 11.7714286,4.4907563 C11.2470588,3.15966387 10.3529412,1.36806723 9.23697479,0.662184874 C8.38655462,0.124369748 7.51596639,-0.0773109244 6.71596639,0.0907563025 C5.91596639,0.255462185 5.2,0.779831933 4.6487395,1.60336134 C4.09747899,2.42689076 3.89579832,3.27394958 4.06386555,4.05378151 C4.21848739,4.76638655 4.69915966,5.40168067 5.42857143,5.91932773 L1.52268908,5.91932773 C0.72605042,5.91932773 0,6.74621849 0,7.65378151 L0,11.2470588 C0,12.1714286 0.712605042,12.9848739 1.52268908,12.9848739 L1.53613445,12.9848739 C1.52605042,13.0218487 1.51260504,13.0554622 1.51260504,13.0957983 L1.51260504,21.9226891 C1.51260504,22.8470588 2.22521008,23.6605042 3.03865546,23.6605042 L20.507563,23.6605042 C21.3176471,23.6605042 22.0302521,22.8504202 22.0302521,21.9260504 L22.0302521,12.9848739 L22.097479,12.9848739 C22.907563,12.9848739 23.6201797,12.1747899 23.6201797,11.2504202 L23.6201797,7.65378151 C23.6235294,6.74621849 22.897479,5.91932773 22.1008403,5.91932773 Z" id="Regalo-_1Light"></path>
        </g>
    </g>
</svg>

<svg width="24" height="24" viewBox="0 0 24 24" xmlns="http://www.w3.org/2000/svg"><path d="M22.598 11.247c0 .424-.302.743-.5.743h-9.843V6.914h9.842c.169 0 .501.336.501.743v3.59zm-1.586 10.676c0 .423-.303.743-.501.743h-8.252v-9.681h8.753v8.938zm-18.47-.004v-8.827c0-.04-.014-.074-.024-.11h8.719v9.68H3.039c-.195 0-.501-.32-.498-.743zM1.024 11.247V7.654c0-.407.333-.743.501-.743h9.711v5.076H1.523c-.195 0-.498-.32-.498-.74zm4.48-9.1c.408-.608.885-.97 1.423-1.081.117-.024.235-.034.356-.034.437 0 .904.155 1.395.464 1.066.672 2.074 3.012 2.467 4.208-1.254.135-3.892.202-4.964-.474-.626-.393-1.002-.86-1.113-1.378-.114-.524.03-1.096.437-1.704zm9.369-.655c.625-.396 1.213-.54 1.751-.426.538.11 1.015.473 1.422 1.082.817 1.22.585 2.282-.672 3.079-1.072.679-3.708.612-4.965.474.39-1.197 1.395-3.533 2.464-4.209zM22.1 5.92h-3.98c.733-.514 1.21-1.153 1.365-1.865.168-.777-.034-1.624-.585-2.45C18.35.78 17.634.254 16.834.09c-.797-.168-1.671.03-2.521.571-1.12.706-2.014 2.501-2.542 3.829-.524-1.331-1.418-3.123-2.534-3.829-.85-.538-1.721-.74-2.521-.571-.8.164-1.516.689-2.067 1.512-.552.824-.753 1.67-.585 2.45.154.713.635 1.349 1.365 1.866H1.523C.726 5.92 0 6.746 0 7.654v3.593c0 .924.713 1.738 1.523 1.738h.013c-.01.037-.023.07-.023.11v8.828c0 .924.712 1.738 1.526 1.738h17.469c.81 0 1.522-.81 1.522-1.735v-8.941h.067c.81 0 1.523-.81 1.523-1.735V7.654c.004-.908-.723-1.735-1.52-1.735z" fill="#5CB615" fill-rule="nonzero"/></svg>
